X:1
T:A Scott Joplin Compilation
T:Scott Joplin
%%score { ( 1 4 ) | ( 2 3 ) }
L:1/8
Q:1/4=116
M:2/4
K:Ab
V:1 treble nm="Piano" snm="Pno."
V:4 treble 
V:2 bass 
V:3 bass 
V:1
!f! z |: z/ A/[Ee]/A/ c/[Ee]G/ | [Ee]/G/B/[Ee]/- [Ee]2 | z/ A/[Ee]/A/ c/[Ee]G/ | %4
w: ||||
 [Ee]/G/B/[Ee]/- [Ee] z/ [Ee]/ | z/ A/_c/[_F_f]/ z/ [Ee]/ z/ [Ee]/ | z/ A/_c/[_F_f]/ z/ [Ee]/ z | %7
w: |||
 z4 | z/ (A/_c/)a/ z/ (a/_c'/)a'/ |!f! [aa'][aa'] [aa'][aa']/[aa']/- | %10
w: |||
 [aa']/e'/f'/c'/ e'/[af'][_fa]/- | [fa]/b/[_f_c']/a/ b/[e=c']a/ | [ec']/a/[eb] [ea] z/ [Aa]/- | %13
w: |||
 [Aa][Aa] [Aa][Aa]/[Aa]/- | [Aa]/e/[Af]/c/ e/[Af][_FA]/- | [FA]/B/[_F_c]/A/ B/[E=c]A/ |2 %16
w: |||
 [Ec]/A/[EB] [EA] z :| [Ec]/A/[EB] [EA] z |: z/ g/[ee']/g/ b/[=d=d']g/ | %19
w: |||
 [dd']/g/b/[cc']/- [cc']/e/[Bb]/e/ | z/ c/[Aa]/c/ e/[Ff]c/ | [Aa]/c/e/[Ff]/- [Ff]/c/[Ff] | %22
w: |||
 z/ e/[Gg]/B/ d/[Ff]e/ | [Gg]/B/d/[Ff]/- [Ff]/d/[Ff] | z/ c/[Aa]/c/ e/[Ff]c/ | %25
w: |||
 [Aa]/c/e/[Ff]/- [Ff]/c/[Ff] | z/ g/[ee']/g/ b/[=d=d']g/ | [dd']/g/b/[cc']/- [cc']/e/[Bb]/e/ | %28
w: |||
 z/ c/[Aa]/c/ e/[Ff]c/ | [Aa][Aa] [Gg][_G_g] | z/ F/=A/c/ f/c/A/F/ | z/ F/B/d/ [Ff][FBd] | %32
w: ||||
 [=DFAc] z/ [DFAc]/ z/ [_DB]E/ |1 [CA][Ee] [Ee][Ee] :|2 z/ A/c/e/ [Aa] z || z/ A/[Ee]/A/ c/[Ee]G/ | %36
w: ||||
 [Ee]/G/B/[Ee]/- [Ee]2 | z/ A/[Ee]/A/ c/[Ee]G/ | [Ee]/G/B/[Ee]/- [Ee] z/ [Ee]/ | %39
w: |||
 z/ A/_c/[_F_f]/ z/ [Ee]/ z/ [Ee]/ | z/ A/_c/[_F_f]/ z/ [Ee]/ z | z4 | z/ A/_c/a/ z/ a/_c'/a'/ | %43
w: ||||
!f! [aa'][aa'] [aa'][aa']/[aa']/- | [aa']/e'/f'/c'/ e'/[af'][_fa]/- | %45
w: ||
 [fa]/b/[_f_c']/a/ b/[e=c']a/ | [ec']/a/[eb] [ea] z/ [Aa]/- | [Aa][Aa] [Aa][Aa]/[Aa]/- | %48
w: |||
 [Aa]/e/[Af]/c/ e/[Af][_FA]/- | [FA]/B/[_F_c]/A/ B/[E=c]A/ | [Ec]/A/[EB] [EA][Aa] |: %51
w: |||
[K:Db][Q:1/4=116] [Acea]>[Bcea]- [Bcea]/[ce]/B | [Acea]>[Bcea]- [Bcea]/[ce]/B/[ce]/ | %53
w: ||
 A/d/B/d/ f/A/d/f/ | B/d/f/A/- A/f/B/f/ | [Acea]>[Bcea]- [Bcea]/[ce]/B | %56
w: |||
 [Acea]>[Bcea]- [Bcea]/[ce]/B/[ce]/ | A/d/B/d/ f/A/d/f/ | B/d/f/A/- A/f/=A/[ef]/ | %59
w: |||
 [B=dfb]>[cdfb]- [cdfb]/[df]/c | [B=dfb]>[cdfb]- [cdfb]/[df]/c/[df]/ | z/ e/[Bb]/e/ g/[cc']e/ | %62
w: |||
 [Bb]/e/g/[cc']/- [cc']/e/[Bb] | [d_fd'][dfd'] [cfc'][cfb] | [Af]/d/e/[Bg]/- [Bg]/B/[Af] | %65
w: |||
 [=Gf]/d/e/[_Gf]/- [Gf]/c/[Ge]/[Fd]/- |1 [Fd]/[Aa]f/ [Aa]/f/[Aa]/f/ :|2 [Fd]/d/f/a/ [dd'] z |: %68
w: |||
[K:Ab] [Aa][Af] [Aa][Af] | [fa][fb]/[fc']/- [fc']/b/a/f/ | e/f[Ac]/- [Ac]2 | %71
w: |||
 z/ e/[Af]/c/ e/[Af]c/ | [Ge]f/[GB]/- [GB]2 | z/ d/[Gf]/B/ d/[Gf][Ac]/- | %74
w: |||
 [Ac]/e/[Af]/c/ e/[Af][Ac]/- | [Ac]/e/[Af]/c/ e/[Af]e/ | [Aa][Af] [Aa][Af] | %77
w: |||
 [fa][fb]/[fc']/- [fc']/b/a/f/ | af e/a[Ac]/- | [Ac]/e/[Af]/c/ e/[Af][FA]/- | %80
w: |||
 [FA]/B/[FA] [_FA][FB]/[EA]/- | [EA]/B/[Ec]/A/ B/[Ec][=DA]/- | [DA]/B/[=Dc]/A/ z/ [_DB]E/ |1 %83
w: |||
 [CA][Ee] [Ee][Ee] :|2 [CA][Gde] [Acea] z ||"^The Entertainer"[Q:1/4=80] z4 | %86
w: |||
!f!!f! =d'/=e'/c'/=a/- a/=b/g | =d/=e/c/=A/- A/=B/G | =D/=E/C/=A,/- A,/=B,/A,/_A,/ | %89
w: |||
 G, z !^![G=B=dg]!>(!!>(!(=D/^D/)!>)!!>)! |:!p!!p! =E/cE/ cE/c/- | %91
w: ||
 c2-!<(!!<(! c/[c=ec']/[=df=d']/[^d^f^d']/!<)!!<)! | %92
w: |
!f!!f! [=eg=e']/[cec']/[=df=d']/[ege']/- [ege']/[=Bd=b]/[dfd'] | %93
w: |
 [c=ec']2-!>(! [cec']!>(!((=D/^D/))!>)!!>)! |!p!!p! =E/cE/ cE/c/- | %95
w: ||
 c2-!<(! c!<(![=Ac=a]/[Gcg]/!<)!!<)! | %96
w: |
!f!!f! [^Fc^f]/[=A=a]/[cc']/[=e=e']/- [ee']/[=d=d']/[cc']/[Aa]/ | %97
w: |
 [=d=f=d']2-!>(! [dfd']!>(!((=D/^D/))!>)!!>)! |!p!!p! =E/cE/ cE/c/- | %99
w: ||
 c2-!<(!!<(! c/[c=ec']/[=df=d']/[^d^f^d']/!<)!!<)! | %100
w: |
!f!!f! [=eg=e']/[cec']/[=df=d']/[ege']/- [ege']/[=Bd=b]/[dfd'] | [c=ec']2- [cec'][cc']/[=d=d']/ | %102
w: ||
 [=e=e']/[cc']/[=d=d']/[ee']/- [ee']/[cc']/[dd']/[cc']/ | %103
w: |
 [=e=e']/[cc']/[=d=d']/[ee']/- [ee']/[cc']/[dd']/[cc']/ | %104
w: |
 [=eg=e']/[cec']/[=df=d']/[ege']/- [ege']/[=Bd=b]/[dfd'] |1 %105
w: |
 [c=ec']2-!>(!!>(! [cec'](=D/^D/)!>)!!>)! :|2 [c=ec']2- [cec']/[=Ece]/[F=df]/[^F^d^f]/ |: %107
w: ||
"^Repeat  8va."!f!!f! [G=eg][=Ae=a]/[Geg]/- [Geg]/[=Ece]/[F=df]/[^F^d^f]/ | %108
w: |
 [G=eg][=Ae=a]/[Geg]/- [Geg]/e/c/G/ | =A/=B/c/=d/ =e/d/c/d/ | G/=e/f/g/ =a/g/e/f/ | %111
w: |||
 [G=eg][=Ae=a]/[Geg]/- [Geg]/[=Ece]/[F=df]/[^F^d^f]/ | [G=eg][=Ae=a]/[Geg]/- [Geg]/g/a/^a/ | %113
w: ||
 [=dg=b]/[dgb][c^fb]/- [cfb]/=a/[cf]/d/ | %114
w: |
 [=Bg]2- [Bg]/!8va(![=ec'=e']/[f=d'f']/[^f^d'^f']/!8va)! :: %115
w: |
 [G=eg][=Ae=a]/[Geg]/- [Geg]/[=Ece]/[F=df]/[^F^d^f]/ | [G=eg][=Ae=a]/[Geg]/- [Geg]/e/c/G/ | %117
w: ||
 =A/=B/c/=d/ =e/d/c/d/ | c2-!>(!!>(! c/G/^F/G/!>)!!>)! |!p!!p! c=A/c/- c/A/c/A/ | %120
w: |||
!<(! G/c/=e/g/- g/e/c/G/!<)! |!f! [^F=A][Fc] [=F=e]/[F=d][=Ec]/- |1 %122
w: ||
 [Ec]2- [Ec]/!8va(![=ec'=e']/[f=d'f']/[^f^d'^f']/!8va)! :|2 %123
w: |
 [=Ec]2- [Ec]!>(!!>(!((=D/^D/))!>)!!>)! ||!p!!p! =E/cE/ cE/c/- | %125
w: ||
 c2-!<(! c/[c=ec']/[=df=d']/[^d^f^d']/!<)! | %126
w: |
!f!!f! [=eg=e']/[cec']/[=df=d']/[ege']/- [ege']/[=Bd=b]/[dfd'] | %127
w: |
 [c=ec']2-!>(! [cec']!>(!((=D/^D/))!>)!!>)! |!p!!p! =E/cE/ cE/c/- | %129
w: ||
 c2-!<(! c!<(![=Ac=a]/[Gcg]/!<)!!<)! | %130
w: |
!f!!f! [^Fc^f]/[=A=a]/[cc']/[=e=e']/- [ee']/[=d=d']/[cc']/[Aa]/ | %131
w: |
 [=d=f=d']2-!>(! [dfd']!>(!((=D/^D/))!>)!!>)! |!p!!p! =E/cE/ cE/c/- | %133
w: ||
 c2-!<(!!<(! c/[c=ec']/[=df=d']/[^d^f^d']/!<)!!<)! | %134
w: |
!f!!f! [=eg=e']/[cec']/[=df=d']/[ege']/- [ege']/[=Bd=b]/[dfd'] | [c=ec']2- [cec'][cc']/[=d=d']/ | %136
w: ||
 [=e=e']/[cc']/[=d=d']/[ee']/- [ee']/[cc']/[dd']/[cc']/ | %137
w: |
 [=e=e']/[cc']/[=d=d']/[ee']/- [ee']/[cc']/[dd']/[cc']/ | %138
w: |
 [=eg=e']/[cec']/[=df=d']/[ege']/- [ege']/[=Bd=b]/[dfd'] | [c=ec']2 [cec'] z | %140
w: ||
!f! [f=a]/^g/[fa]- [fa][fac'] | [fb=d']4 | [=df]/=e/[df]- [df][df=a] | [=dgb]2- [dgb]>g | %144
w: ||||
 =dg/d/ d/g/d | c2 f2 | =e/^g/=b/=e'/- e'/=d'/b/c'/ | =a2 _b2 | [f=a]/g/[fa]- [fa][fac'] | %149
w: |||||
 [fb=d']4 | [=df]/=e/[df]- [df][df=a] | [=dgb]2- [dgb]>g | =dg/d/- d/g/d | %153
w: ||||
!<(! c2!<)!!>(! [^G=Bf]>f!>)! |!f! [=Ac=a]/[cc'][Bg]/- [Bg]/c/[B=d]/=e/ | f(=B/c/ =d/=e/f/g/) | %156
w: |||
 [=Af] z [f=ac'f'] z | c=A/c/- c/A/c/A/ | G/c/=e/g/- g/e/c/G/ | [^F=A][Fc] [=F=e]/[F=d][=Ec]/- | %160
w: ||||
 [Ec]2 [c=egc'] z | [=DF][^C=E]/[DF]/- [DF]/[CE]/[DF] | z/ =A/[F=d]/A/ c/d/c/A/ | %163
w: |||
 [=EG][^D^F]/[EG]/- [EG]/[DF]/[EG] | z/ c/[G=e]/c/ =d/e/d/c/ | [=B=d][^A^c]/[Bd]/- [Bd]/[Ac]/[Bd] | %166
w: |||
 z/ f/[=B=a]/f/ g/a/g/f/ | [cc']/[cc']/ [cc']2 [c=a] | [cg][=EG]/[EG]/ [EG][EG] | %169
w: |||
 [=DF][^C=E]/[DF]/- [DF]/[CE]/[DF] | z/ =A/[F=d]/A/ c/d/c/A/ | [=EG][^D^F]/[EG]/- [EG]/[^DF]/[EG] | %172
w: |||
 z/ c/[G=e]/c/ =d/e/d/c/ | =A/^G/A/[A=g]/- [Ag]/[Af][Ac]/ | [G=e]/^d/e/=a/- a/c'/g/e/ | %175
w: |||
 [^Fc][Fc] [=F=B=e]/[FB=d][=EGc]/- | [EGc][=EG]/[EG]/ [EG][EG] | ((([=EGc]2 [c=egc']))) z | %178
w: |||
"^Frolic of The Bears" z4 |[Q:1/4=120] (=B,^A, B,A, | =B,^A,) (B,A, | =B,^A, B,A,) | (=B,C ^C=D | %183
w: |||||
 ^D=E) (^E^F | G^G =A^A) |!f! (=B_B =A_A | G^F) (=F=E | E=D _DC) | (=B,^A, B,A, | =B,^A,) =B2 | %190
w: |||||||
 =B2 B2 |{/c} (=B=E) (E^F | G=B) (=A2- | A=B c2) |{/c} (=B=E) (E^F | G=B) (=A2- | A=B c2) | %197
w: |||||||
({/c} =B [=EG=e]2 [^F=A^f] | [G=Bg]2)({/c} B[^F^d^f]- | [Fdf][G=eg] [=A^f=a]2) | %200
w: |||
{/c} =B[Bg=b]- [Bgb]([G=eg] | [=E=e][^F^f])!f! [^D=B^d]2 |{/^A} !>!=B2 !>!!fermata!=B,2 | %203
w: |||
"^a tempo"{/c} (=B=E) (E^F | G=B) (=A2- | A=B c2) |{/c} (=B=E) (E^F | G=B) (=A2- | A=B c2) | %209
w: ||||||
({/c} =B [=EG=e]2 [^F=A^f] | [G=Bg]2)({/c} B[^F^d^f]- | [Fdf][G=eg] [=A^f=a]2) | %212
w: |||
 =B[Bg=b]- [Bgb][cc'] | [=A=a][^F^f] [Ee]2 | .E.=D .D.D | ^C =E2 G | B2 (B=A | B=A B2) | %218
w: ||||||
 !^![G=B^cg]4 | !^![G=B^cg]2 !^![G_B=e]2 | ^C2 C2 | =D F2 A | =B2 (B^A | =B^A B2) | !^![A=B=da]4 | %225
w: |||||||
 !^![A=B=da]2 !^![ABf]2 | =D2 D2 | (=d=e) (ed) | =d2 (d=e) | (=e=d) d2 | (=ef) (fe) | =e2 (ef) | %232
w: |||||||
 (f=e) e2 |!mf! (=b =a2 g | c2) (=b=a- | ag =B2) | !tenuto![G=B=d]2 !tenuto![G^A^c]2 | %237
w: |||||
 !tenuto![G=Ac]2 !tenuto![^FAc]2 | =D2 D2 | ^C =E2 G | B2 (B=A | B=A B2) | !^![G=Bcg]4 | %243
w: ||||||
 !^![G=Bcg]2 !^![G_B=e]2 | ^C2 C2 | =D F2 A | =B2 (B^A | =B^A B2) | !^![A=B=da]4 | %249
w: ||||||
 !^![A=B=da]2 !^![ABf]2 | [F=B]2 [=DFB]2 |[K:bass] (.F,=E,F,E, | F,=E,) (=D,^C, |=D,^C,D,=E, | %254
w: |||||
 F,) z[K:treble] !^!F z | !^!A z !^![=df=b] z | !^![=df=b] z !^![^c=eb] z |[K:bass] (G,^F,G,F, | %258
w: ||||
G,^F,) (=E,^D, |=E,^D,E,^F, | G,) z[K:treble] G z | !^!B z !^![=eg^c'] z | %262
w: ||||
 !^![=eg^c'] z !^![^d^f=c'] z |[K:bass] z [=E,C]2 [=D,=B,] | [C,=A,]2 z [C,A,]- | %265
w: |||
 [C,A,][=D,=B,] [=E,C]2 | z [^F,C=E]2 [F,CE] | [^F,C=D]2 z [G,=B,=E]- | %268
w: |||
 [G,B,E][G,=B,=E] [G,B,=D]2 |[K:treble]!p! =e'e' e'2 | e'2 [^f=ae']2 | [^f=ae']4 | =d'd' d'2 | %273
w: |||||
 =d'2 d'2 | c'4 |[K:bass]!f! (F,=E,F,E, |F,=E,) (=D,^C, |=D,^C,D,=E, | F,)[K:treble] z !^!F z | %279
w: ||||||
 !^!G z !^![=df=b] z | !^![=df=b] z !^![^c^d_b] z |[K:bass] (G,^F,G,F, |G,^F,) (=E,^D, | %283
w: ||||
=E,^D,E,^F, | G,) z[K:treble] G z | !^!B z !^![=eg^c'] z | !^![^c=eb] z !^![=c_e=a] z | %287
w: ||||
{/c=d} (c3 =B | =A2){/^D} (=E2- | E^F G2) | (C4 | =B,2){/B,} (C2- | C2 =B,2) |{/c=d} (c3 =B | %294
w: |||||||
 =A2){/=D} (=E2- | E^F G2) | (C4 | =B,2) =B2 | =B2 B2 |!mp!{/c} (=B=E) (E^F |G =B) (=A2- | %301
w: |||||||
 A=B c2) |{/c} (=B=E) (E^F |G =B) (=A2- | A=B c2) |{/c} =B [=EGe]2 [^F=A^f] | %306
w: |||||
 [G=Bg]2{/c} (B[^F^d^f]- | [Fdf][G=eg] [=A^f=a]2) | x4 | .^A2!f! [^D=B^d]2 | %310
w: ||||
{/^A} (!>!=B2 !>!!fermata!=B,2) |{/c} (=B=E) (E^F |G =B) (=A2- | A=B c2) |{c} (=B=E) (E^F | %315
w: |||||
G =B) (=A2- | A=B c2) |({/c} =B [=EG=e]2 [^F=A^f] | [G=Bg]2)({/c} B[^F^d^f]- | %319
w: ||||
 [Fdf][G=eg] [=A^f=a]2) |{/c} =B[Bg=b]- [Bgb][cc'] |[=A=a][^F^f]!f! [Ee]2 | E=DDD | ^C =E2 G | %324
w: |||||
 B2 (B=A |B=A B2) | !^![G=Bcg]4 | !^![G=Bcg]2 !^![G_B=e]2 | ^C2 C2 | =D F2 A | =B2 (.B^A | %331
w: |||||||
 =B^A B2) | !^![A=B=da]4 | !^![A=B=da]2 !^![ABf]2 | =D2 D2 |!p! (=d=e)(e d) | =d2 (d=e) | %337
w: ||||||
 (=e=d) d2 | (=ef)f .e | =e2 (ef) |(f=e) e2 | (=b =a2 g | c2) (=b=a- | ag =B2) | %344
w: |||||||
 !tenuto![G=B=d]2 !tenuto![G^A^c]2 | !tenuto![G=Ac]2 !tenuto![^FAc]2 | =D2 D2 | ^C =E2 G | %348
w: |||* sempre *|
 B2 (B=A |B=A B2) | !^![GB^cg]4 | !^![GB^cg]2 !^![GB=e]2 | ^C2 C2 | =D F2 A | =B2 (B^A |=B^A B2) | %356
w: ||||||||
 !^![A=B=da]4 | !^![A=B=da]2 !^![ABf]2 | [=DF=B]2 [DFB]2 |[K:bass] (F,=E,F,E, |F,=E,) (=D,^C, | %361
w: |||||
 =D,^C,D,)=E, | _F, z[K:treble] !^!F z | !^!A z !^![=df=b] z | !^![=df=b] z !^![^c=e_b] z | %365
w: ||||
[K:bass] (G,^F,G,F, |G,^F,) (=E,^D, | =E,^D,E,^F,) |] G, z[K:treble] !^!G z | %369
w: ||||
 !^!B z !^![=eg^c'] z | !^![=eg^c'] z !^![^d^f=c'] z |[K:bass] z [=E,C]2 [=D,=B,] | %372
w: |||
 [C,=A,]2 z [C,A,]- | [C,A,][=D,=B,] [=E,C]2 | z [^F,C=E]2 [F,CE] | [^F,C=D]2 z [G,=B,=E]- | %376
w: ||||
 [G,B,E][G,=B,=E] [G,B,=D]2 |[K:treble]!p! =e'e' e'2 | e'2 [^f=ae']2 | [^f=a=d']4 | =d'd' d'2 | %381
w: |||||
 =d'2 x2 | c'4 |[K:bass]!f! (F,=E,F,E, |F,=E,) (=D,^C, |=D,^C,D,=E, | F,) z[K:treble] !^!F z | %387
w: ||||||
 !^!A z !^![=df=b] z | !^![=df=b] z !^![^c=e_b] z |[K:bass] (G,^F,G,F, |G,^F,) =E,^D, | %391
w: ||||
=E,^D,E,^F, | G, z[K:treble] !^!G z | !^!B z !^![=eg^c'] z | !^![^c=eb] z !^![=c_e=a] z | %395
w: ||||
!p! (c'3 =a | ^f2) =ff |=ee _e2 | (c3 =A | ^F2) =FF |=EE _E2 | z4 | z2 z2 | z4 | z2 (^F,=B, | %405
w: ||||||||||
^D^F) =B2 | =B2 B2 |!mf!{/c} (=B=E) (E^F |G =B) =A2- | A=B c2 |{/c} (=B=E) (E^F |G=B) (=A2- | %412
w: |||||||
 A=B c2) |{/c} (=B [=EG=e]2 [^F=A^f] | [G=Bg]2){/c} (B[^F^d^f]- | [Fdf][G=eg] [=A^f=a]2) | z4 | %417
w: |||||
 ^A2!f! [^D=B^d]2 |{/^A} !>!=B2 !>!=B,2 |"^a tempo"{/c} (=B=E) E^F |G=B (=A2- | A=B c2) | %422
w: |||||
{/c} (=B=E) (E^F |G =B) (=A2- | A=B c2) |{/c} (=B [=EG=e]2 [^F=A^f] | [G=Bg]2){/c} (B[^F^d^f]- | %427
w: |||||
 [Fdf][G=eg] [=A^f=a]2) |!ff!{/c} (=B[B=b][_B_b][=A=a] |[Aa][Gg]) ([^F^f][=E=e] | %430
w: |||
[^D^d][=E=e][^E^e][^F^f]) | [Gg]3 [Gg] | [Gg]2 [Gg]2- | [Gg][Gg] [Gg]2 | [Beg]2 (g2- | gf) [Ge]2 | %436
w: ||||||
 (Bef^f) | [Gg]3 [Gg] | [Gg]2 [Gg]2- | [Gg][Gg] [Gg]2 | [=B=eg]2 (g2- | g^f) [G=B=e]2 | %442
w: ||||||
 [=EG=B=e]2 [EGBe]2 | [^D^Fc^d]2 [DFcd]2 | [^D^F=A^d]2 [=EG=e]2 | z2 z2 | [^F=A=B^d]2 z2 | %447
w: |||||
 z2 [=EG=B=e]2 |{/^f} g2 =b2 | [=eg=b=e']2 z2 | z2 !fermata![G,=B,=E]2- | [G,B,E]4 | %452
w: |||||
[Q:1/4=80]"^Wall Street Rag" z4 |!mf![Q:1/4=86] c>=A =DC/D/ | =E F2 G | =E=D/E/ F/=A_A/ | %456
w: ||||
 G2 !>![G=Bg] z | %457
w: |
"^Panic in Wall Street, Brokers feeling melancholy."!mf! ([C=E]/[=DF]/[EG]/[^D=A]/-) ([DA]/[^F^d]/[G=e]/[Ec]/) | %458
w: |
 =dd/=e/ (d/c/=D/F/) | ([C=E]/[=DF]/[EG]/[^D=A]/-) ([DA]/[^F^d]/[G=e]/[Ec]/) | =d=e/d/ (c/d/e/G/) | %461
w: |||
 (^G/=E/G/=e/-) (e/f/e) | (=A/=E/c/=e/-) (e/f/e) | %463
w: ||
!<(! (=e/=d/^f/=b/-) ([dfb]/[efc']/[dfb]/[cf=a]/)!<)! | ([=B=f=a]/g/f/=d/!>(! [FG=e]/d/G/F/)!>)! | %465
w: ||
!mf! ([C=E]/[=DF]/[EG]/[^D=A]/-) ([DA]/[^F^d]/[G=e]/[Ec]/) | =dd/=e/ (d/c/=D/F/) | %467
w: ||
 ([C=E]/[=DF]/[EG]/[^D=A]/-) ([DA]/[^F^d]/[G=e]/[Ec]/) | =dc/d/ cc/d/ | %469
w: ||
 (=e/c/G/=A/-) ([CA]/[A^ce=a]/[Bceb]/[Acea]/) | %470
w: |
 [=e^f=c'=e'][=dfc'=d']/[=Acf=a]/- ([Acfa]/[^G^g]/[Afa]/[cfc']/) | %471
w: |
 [=e=g=e'][=d=f=d']/[=af'=a']/- ([af'a']/[ge'g']/[ege']/[dfd']/) | [c=ec']2- [cec']/(G/=D/^D/) | %473
w: ||
 [c=ec']2- [cec'][cc']/[Bb]/ |!f!"^Good times coming." [=Acf=a][Acfa] [cfac'][c^fac'] | %475
w: ||
 [cgc']2 (=b=a) | =a>a (a/g/=b/a/) | =a>a (a/g/)[cc']/[Bb]/ | [=Acf=a][Acfa] [cfac'][c^fac'] | %479
w: ||||
 [cgc']2 (=b=a) | [c=f=a][c=ea] (^g>=b) | [c=e=a]2 (a/=g/)[cc']/[Bb]/ | %482
w: |||
 [=Acf=a][Acfa] [cfac'][c^fac'] | [cgc']2 (=b=a) | =a>a (a/g/=b/a/) | =a>a (a/g/)[Cc]/[=D=d]/ | %486
w: ||||
 [^D=Ac^d]2 [^FAc^f]2 | [=Ac^d=a]4 | ([=A=a][Gg]) (=e/=de/) | %489
w: |||
 [=Ec][E=e]/[Ff]/ [^F^f]/[Gg]/[cec']/[Beb]/ | [=Ec]2- [Ec] (G/^G/) | %491
w: ||
"^Good times have come."!mp! [F=A]/[=GB]/[Ac]/[FA]/- ([FA]/[CFA]/[=DFA]) | %492
w: |
 [F=A]/[CFA]/[^CFA]/[=DFA]/- ([DFA]/[EFA][DFA]/-) | %493
w: |
 ([FA]/G/F/[FG]/-) ([DFG]/[F,D]/[G,D]/[=A,=C]/-) | [A,C]2- [A,C]/([B=d]/[=Ac]/[GB]/) | %495
w: ||
 [F=A]/[GB]/[Ac]/[FA]/- ([FA]/[CFA]/[=DFA]) | %496
w: |
 [F=A]/[CFA]/[^CFA]/[=DFA]/-!<(! [DFA]/[=C^DA][C=EA]/-!<)! | %497
w: |
!<(! (A/G/^F/G/) [=FG=B]/[GB=e][FB=d]/!<)! | (=dc)!>(! (G^G)!>)! | %499
w: ||
!mp! [F=A]/[=GB]/[Ac]/[FA]/- ([FA]/[CFA]/[=DFA]) | [F=A]/[CFA]/[^CFA]/[=DFA]/- [DFA]/[EFA][DFA]/- | %501
w: ||
 [FA]/G/F/[FG]/-!<(! [DFG][D=E^G]!<)! | z/ [=A^c]/[c=e]/[c=a]/- [ca]/ z/ z | %503
w: ||
!mf! [=D=A][^F=c=d]/[Fce]/- [Fce]/d/[d^fb]/[cf=a]/ | [=f=a]/=d/f/[fg]/- [fg]/a/[fg] | %505
w: ||
 =a/g/=e/c'/- c'/_b/=d/e/ | [=Acf]2-!>(! (f/F/G/^G/)!>)! | [=Acf]2- [Acf] (!^!=d/^d/) | %508
w: |||
!mf! =e/[gbc'=d']/=d/^d/ e/[gbc'=d']/=d/^d/ | =e/[gbc'=d'][=abc']/- [abc']/(g/=d/e/) | %510
w: ||
"^ragtime, brokers forget their cares." f/[=ac'=d']/=d/=e/ f/[ac'd']/d/e/ | %511
w: |
 f/[g=ac'][gac']/- [gac']/(f/=e/f/) | ^f/[=ac'e']/=e/^e/ f/[ac'_e']/=e/[fa=d']/ | %513
w: ||
 [gb=d']/[=abd'][abd']/- [abd']/(g/a/b/) |!<(! =b/[=d'=e']/^g/=a/ b/[d'e']/g/[bd'e']/!<)! | %515
w: ||
!f! [=ac'=e']2 [c^d^fc'](=d/^d/) |!mf! =e/[gbc'=d']/=d/^d/ e/[gbc'=d']/=d/^d/ | %517
w: ||
 =e/[gbc'=d'][=abc']/- [abc']/(g/=d/e/) | f/[=ac'=d']/=d/=e/ f/[ac'd']/d/e/ | %519
w: ||
 f/[g=ac'][gac']/- [gac']/(f/=e/f/) | ^f/[=ac'e']/=e/^e/ f/[ac'_e']/=e/[fa=d']/ | %521
w: ||
 [gb=d']/[=abd'][abd']/- [abd']/[gbd']/!^![^g=b=f'] | !^![c'f']/=d'/c'/=a/ a/=gc'/ | %523
w: ||
 [=Acf]2- [Acf]!^!=d/^d/ | [=Acf]2 [f=ac'f'] z |[Q:1/4=80]"^Palm Leaf Rag" z4 | %526
w: |||
[Q:1/4=94] B/=A/G/B/- B/A/G | F/G/=A/F/- F2 | C=D/E/ F/G=A/ | B z z2 |!mf! FG/=A/- A/G/F | %531
w: |||||
 [F=Af]2- [FAf]/e/c/^c/ | =d/=d'/b/f/ g/f/B/d/- | d/b/=a/g/ g/f=d/ | ef/e/- e/=d/c | %535
w: ||||
 B2- B/=d/g/b/ | =a/f/=d/=A/- A/g/f/=e/ | =d2- d z | FG/=A/- A/G/F | [F=Af]2- [FAf]/e/c/^c/ | %540
w: |||||
 =d/=d'/b/f/ a/g/f/e/- | [ce]/^f/g/=a/ c'/b/g/e/ | g/B/c/e/- e/f/[Bg] | [B-fb-]2 [Bb]/b/=a/g/ | %544
w: ||||
 f/=dc/ [=EB][_E=Ac] | [=DB] (=d/^c/ d/B/G/_G/) | [=DB] (=df[f=d']) | %547
w: |||
 [^fc']/[gb][Geg]/- [Geg]/[=A=f=a]/[Bgb] | [Ee]2- [Ee][Bgb] | %549
w: ||
 [^cg]/[=df][=DBd]/- [DBd]/[E=ce]/[Fdf] | [B,B]2- [B,B]=d | e/f/=A/c/ e/f=a/ | %552
w: |||
 [eg]=a/[eg]/- [eg]/a/c'/e/ | =d/f/B/c/ d/fb/ | [=dg]b/[dg]/- [dg]/b/[f=d'] | %555
w: |||
 [^fc']/[gb][Geg]/- [Geg]/[=A=f=a]/[Bgb] | [Ee]2- [Ee][Bgb] | %557
w: ||
 [^cg]/[=df][=DBd]/- [DBd]/[E=ce]/[Fdf] | [B,B]2- [B,B][=DA] | [EG]>[GB] [Be]/G/B/c/ | %560
w: |||
 [B=d]F (=E/G/B/^c/) | =df/F/- F/d/c | B (=df[f=d']) | B2- B (G/_A/) | (B/g/f/e/ B/=B/c/^c/) | %565
w: |||||
 =d/[ac']d/ [ac']>B- | B/(g/f/e/ B/=B/c/^c/) | =d/[ac']d/ [ac']>b- | b/f/g/a/- a/g/f/^f/ | %569
w: ||||
 g/^f/g/[ge']/- [ge']/=d'/[ge']/c'/ | [f=d']/b/f/[=eg]/- [eg]/[eg]/[_e=a] | b/c'/b/_a/ f/=d/c/_c/ | %572
w: |||
 (B/g/f/e/ B/=B/c/^c/) | =d/[ac']d/ [ac']>B- | B/(g/f/e/ B/=B/c/^c/) | =d/[ac']d/ [ac']>g- | %576
w: ||||
 g/e'/b/g/ e/g/f/e/ | c/=B/c/e/- e/c/=A/^F/ | G/_A/B G/FB/ | E{/c}B{/c} BG/A/ | E2 [EGBe] z | %581
w: |||||
 (E/B/G/_G/ (F)[B=d]) | (E/B/G/_G/ F2) | =A/c/e/g/- g/f/e/A/ | B z z2 |!mf! FG/=A/- A/G/F | %586
w: |||||
 [F=Af]2- [FAf]/e/c/^c/ | =d/=d'/b/f/ g/f/B/d/- | d/b/=a/g/ g/f=d/ | ef/e/- e/=d/c | %590
w: ||||
 B2- B/=d/g/b/ | =a/f/=d/=A/- A/g/f/=e/ | =d2- d z | FG/=A/- A/G/F | [F=Af]2- [FAf]/e/c/^c/ | %595
w: |||||
 =d/=d'/b/f/ a/g/f/e/- | [ce]/^f/g/=a/ c'/b/g/e/ | g/B/c/e/- e/f/[Bg] | [B-fb-]2 [Bb]/b/=a/g/ | %599
w: ||||
 f/=dc/ [=EB][_E=Ac] | [=DB] (=d/^c/ d/B/G/_G/) | [=DB]2 [B=dfb] z |] %602
w: |||
V:2
 [E,,E,] |: [A,,A,][E,A,C] [E,A,C][=A,,=A,] | [B,,B,][E,G,D] [E,G,D][E,,E,] | %3
 [A,,A,][E,A,C] [E,A,C][=A,,=A,] | [B,,B,][E,G,D] [E,G,D][E,,E,] | [_F,,_F,]2 [E,,E,][E,,E,] | %6
 [_F,,_F,]2 [E,,E,] z |!mf! z/ (A,,/_C,/)A,/ z/ (A,/_C/)A/ | A, z A z | %9
[K:treble] [=DFA=B][DFAB] [DFAB][DFAB] | [EAc][EAc] [EAc][EAc] | [_FA_c][FAc] [EA=c][EAc] | %12
 [EAc][EGd] [Ac] z |[K:bass] [=D,F,A,=B,][D,F,A,B,] [D,F,A,B,][D,F,A,B,] | %14
 [E,A,C][E,A,C] [E,A,C][E,A,C] | [_F,A,_C][F,A,C] [E,A,=C][E,A,C] |2 [E,G,C][E,G,D] [A,C][E,,E,] :| %17
 [E,A,C][E,G,D] [A,C][=A,,=A,] |: [B,,B,]/ z/ [E,G,D] [E,,E,][E,G,D] | %19
 [B,,B,][E,G,D] [E,,E,][G,,G,] | [A,,A,][E,A,C] [E,,E,][E,A,C] | [A,,A,][E,A,C] [A,,A,][=A,,=A,] | %22
 [B,,B,][E,G,D] [E,,E,][E,G,D] | [B,,B,][E,G,D] [B,,B,][=B,,=B,] | [C,C][E,A,C] [E,,E,][E,A,C] | %25
 [A,,A,][E,A,C] [A,,A,][=A,,=A,] | [B,,B,][E,G,D] [E,,E,][E,G,D] | [B,,B,][E,G,D] [E,,E,][G,,G,] | %28
 [A,,A,][E,A,C] [E,,E,][E,A,C] | [A,,A,][A,,A,] [G,,G,][_G,,_G,] | %30
 [F,,F,][F,,F,] [=A,,=A,][A,,A,] | [B,,B,][F,B,D] [F,B,D][F,B,D] | %32
 [B,,F,B,][B,,F,B,] [E,,E,][G,,G,] |1 [A,,A,][E,A,C] [E,A,C][=A,,=A,] :|2 %34
 [A,,A,][A,CE] [A,CE][E,,E,] || [A,,A,][E,A,C] [E,A,C][=A,,=A,] | [B,,B,][E,G,D] [E,G,D][E,,E,] | %37
 [A,,A,][E,A,C] [E,A,C][=A,,=A,] | [B,,B,][E,G,D] [E,G,D][E,,E,] | [_F,,_F,]2 [E,,E,][E,,E,] | %40
 [_F,,_F,]2 [E,,E,] z |!mf! z/ A,,/_C,/A,/ z/ A,/_C/A/ | A, z A z | [=DFA=B][DFAB] [DFAB][DFAB] | %44
 [EAc][EAc] [EAc][EAc] | [_FA_c][FAc] [EA=c][EAc] | [EAc][EGd] [Ac] z | %47
 [=D,F,A,=B,][D,F,A,B,] [D,F,A,B,][D,F,A,B,] | [E,A,C][E,A,C] [E,A,C][E,A,C] | %49
 [_F,A,_C][F,A,C] [E,A,=C][E,A,C] | [E,G,C][E,G,D] [A,C] z |:[K:Db] [E,,E,][A,CG] [G,,G,][A,CG] | %52
 [F,,F,][A,CG] [E,,E,][C,,C,] | [D,,D,][A,DF] [A,,A,][A,DF] | [F,,F,][A,DF] [D,,D,][=D,,=D,] | %55
 [E,,E,][A,CG] [G,,G,][A,CG] | [F,,F,][A,CG] [E,,E,][C,,C,] | [D,,D,][A,DF] [A,,A,][A,DF] | %58
 [F,,F,][A,DF] [D,,D,][C,,C,] | [B,,,B,,][B,=DA] [=D,,=D,][B,DA] | [F,,F,][B,=DA] [B,,,B,,][B,DA] | %61
 [E,,E,][B,EG] [B,,B,][B,EG] | [E,,E,][B,EG] [G,,G,][B,EG] | =G,/B,D/ _F/D/B,/G,/ | %64
 [A,,A,][A,DF] B,,[A,B,=D] | [E,B,D][E,B,D] [A,C][A,C] |1 [D,D][A,DF] [A,DF][=D,,=D,] :|2 %67
 [D,D][A,,A,] [D,,D,][C,C] |:[K:Ab] [D,D][A,DF] [A,DF][C,C] | [D,D][A,DF] [B,,B,][=B,,=B,] | %70
 [C,C][A,CE] [A,CE][E,,E,] | [A,,A,][E,A,C] [E,,E,][=A,,=A,] | [B,,B,][E,G,D] [E,,E,][=A,,=A,] | %73
 [B,,B,][E,G,D] [E,,E,][G,,G,] | [A,,A,][E,A,C] [E,,E,][E,A,C] | [A,,A,][E,A,C] [B,,B,][C,C] | %76
 [D,D][A,DF] [A,DF][C,C] | [D,D][A,DF] [B,,B,][=B,,=B,] | [C,C][A,CE] [A,CE][E,,E,] | %79
 [A,,A,][E,A,C] [E,,E,][E,A,C] | [D,,D,][D,,D,] [B,,,B,,][=D,,=D,] | %81
 [E,,E,][E,A,C] [E,,E,][=E,,=E,] | [F,,F,][F,,F,] [G,,G,][G,,G,] |1 [A,,A,][E,A,C] [B,,B,][C,C] :|2 %84
 [A,,A,][E,,E,] [A,,,A,,] z || z4 |[K:treble-8] =d'/=e'/c'/=a/- a/=b/g | %87
[K:bass] =D/=E/C/=A,/- A,/=B,/G, | =D,/=E,/C,/=A,,/- A,,/=B,,/A,,/_A,,/ | %89
 G,, z !^![G,,,G,,][G,=B,] |: C,[=E,G,C] [G,,G,][G,B,C] | [F,,F,][=A,C] [=E,,=E,][G,C] | %92
 G,,[=E,G,C] G,,[F,G,=B,] | C,[=E,G,C] [E,G,C][G,=B,] | C,[=E,G,C] [G,,G,][G,B,C] | %95
 [F,,F,][=A,C] [=E,,=E,][_E,,_E,] | [=D,,=D,][D,^F,=A,C] D,[F,A,C] | %97
 [G,=B,][G,,G,] [=A,,=A,][=B,,B,] | C,[=E,G,C] [G,,G,][G,B,C] | [F,,F,][=A,C] [=E,,=E,][G,C] | %100
 G,,[=E,G,C] G,,[F,G,=B,] | C,[=E,G,C] [E,C=E] z | [C,C][G,C=E] [B,,B,][G,CE] | %103
 [=A,,=A,][A,CF] [_A,,_A,][A,CF] | [G,,G,][G,C=E] G,,[G,=B,] |1 %105
 [C,G,C][G,,G,] [=A,,=A,][=B,,=B,] :|2 [C,G,C][G,,G,] [C,,C,] z |: [C,,C,][G,C=E] G,,[G,CE] | %108
 C,[G,C=E] G,,[G,CE] | F,,[=A,CF] F,[_A,CF] | =E,[G,C=E] G,,[G,CE] | C,[G,C=E] C,[G,CE] | %112
 C,[G,C=E] =E,_E, | =D,[G,=B,=D] D,[=A,CD] | [G,=B,=D]!^![=F,,=F,] !^![=E,,=E,]!^![=D,,=D,] :: %115
 !^![C,,C,][G,C=E] G,,[G,CE] | C,[G,C=E] G,,[G,CE] | F,,[=A,CF] F,[_A,CF] | =E,[G,C=E] C,[B,CE] | %119
 [F,=A,CF][F,A,CF] [^F,A,C^D][F,A,CD] | [G,C=E][G,CE] [G,CE][G,CE] | [=D,C][D,=A,] [G,=B,][G,B,] |1 %122
 [C,C]!^![G,,G,] !^![=E,,=E,]!^![=D,,=D,] :|2 [C,C][G,,G,] [C,,C,] z || C,[=E,G,C] [G,,G,][G,B,C] | %125
 [F,,F,][=A,C] [=E,,=E,][G,C] | G,,[=E,G,C] G,,[F,G,=B,] | C,[=E,G,C] [E,G,C][G,=B,] | %128
 C,[=E,G,C] [G,,G,][G,B,C] | [F,,F,][=A,C] [=E,,=E,][_E,,_E,] | [=D,,=D,][D,^F,=A,C] D,[F,A,C] | %131
 [G,=B,][G,,G,] [=A,,=A,][=B,,B,] | C,[=E,G,C] [G,,G,][G,B,C] | [F,,F,][=A,C] [=E,,=E,][G,C] | %134
 G,,[=E,G,C] G,,[F,G,=B,] | C,[=E,G,C] [E,C=E] z | [C,C][G,C=E] [B,,B,][G,CE] | %137
 [=A,,=A,][A,CF] [_A,,_A,][A,CF] | [G,,G,][G,C=E] G,,[G,=B,] | [C,G,C][G,,G,] [C,,C,] z | %140
 F,,[=A,CF] C,[A,CF] | B,,[B,=DF] F,[B,DF] | =D,,[=A,=DF] =A,,[A,DF] | G,,[B,=D] =D,[B,D] | %144
 [B,,B,][B,=D] [G,,G,][^G,,^G,] | [=A,,=A,][A,CF] =D[A,DF] | =E,[=B,=D=E] ^G,[B,DE] | %147
 [=A,C=E]2 [=G,CE]2 | F,,[=A,CF] C,[A,CF] | B,,[B,=DF] F,[B,DF] | =D,,[=A,=DF] =A,,[A,DF] | %151
 G,,[B,=D] =D,[B,D] | [B,,B,][B,=D] [G,,G,][^G,,^G,] | %153
 [=A,,=A,]/[F,,F,]/[=E,,=E,]/[=D,,=D,]/ [_D,,_D,]2 | [C,,C,][=A,CF] [C,C][C,,C,] | [F,,F,] z z2 | %156
 [F,,F,] z [F,,,F,,] z | [F,=A,CF][F,A,CF] [^F,A,C^D][F,A,CD] | [G,C=E][G,CE] [G,CE][G,CE] | %159
 [=D,C][D,=A,] [G,=B,][G,B,] | [C,C]2 [C,,C,] z | F,,[F,=A,] =A,,[F,A,] | F,,[F,=A,] =A,,[F,A,] | %163
 C,[=E,G,C] G,,[E,G,C] | C,[=E,G,C] G,,[E,G,C] | G,,[F,G,=B,] =B,,[F,G,B,] | %166
 G,,[F,G,=B,] =D,[F,G,B,] | [^D,^F,C] [D,F,C]2 [D,F,C] | [=E,G,C] z z2 | F,,[F,=A,] =A,,[F,A,] | %170
 F,,[F,=A,] =A,,[F,A,] | C,[=E,G,C] G,,[E,G,C] | C,[=E,G,C] G,,[E,G,C] | %173
 [F,,F,][=D,,=D,] [=E,,=E,][F,,F,] | [G,,G,][G,C=E] [^F,C^D][G,CE] | %175
 [=A,,=A,][=D,,=D,] [G,,G,][=B,,=B,] | [C,C] z z2 | [C,C][G,,G,] [C,,C,] z | z4 | %179
 (=B,,^A,, B,,A,, | =B,,^A,,) (B,,A,, | =B,,^A,, B,,A,,) | (=B,,C, ^C,=D, | ^D,=E,) (^E,^F, | %184
 G,^G, =A,^A,) |"^decresc." (=B,_B, =A,_A, | G,^F,) (=F,=E, | E,=D, _D,C,) |!mf! (=B,,^A,, B,,A,, | %189
 =B,,^A,,) ((([B,,^F,=A,]2- | [B,,F,A,]4 | ((([=E,G,=B,]4-))) | [E,G,B,]2 (([=A,C]2-))) | [A,C]4 | %194
 ((([=E,G,=B,]4-)) | [E,G,B,]2 (([=A,C]2-))) | [A,C]4 |"^cresc." (([G,=B,]4-)) | %198
 [G,B,]2 (([=A,=B,]2-)) | [A,B,]4 | (([=E,G,=B,]4)) | [C,^F,]2)) [=B,,F,]2 | %202
{/^A,} !>!=B,2 !>!!fermata!=B,,2 |!mp! ((([=E,G,=B,]4- | [E,G,B,]2 (([=A,C]2-))) | [A,C]4 | %206
 (((([=E,G,=B,]4-)) | [E,G,B,]2 [=A,C]2-)))) | [A,C]4 | (([G,=B,]4- | [G,B,]2 [=A,=B,]2-)) | %211
 [A,B,]4 | [=E,G,=B,]2- [E,G,B,][C,C] | [=A,,=A,][^F,,^F,]!f! [E,,E,]2 |"^sempre" .E,.=D, .D,.D, | %215
 ^C, =E,2 G, | B,2 (^C^B, | ^C^B, C2) | (!^!=E^C B,G, | =E,2) ^C,2 | ^C,2 C,2 | =D, F,2 A, | %222
 =B,2 (=D^C | =D^C D2) | (F=D =B,A, | F,2) !^!=D,2 | =D,2 D,2 | z2 =A,2 | [C=D]2 z2 | %229
 G,2 [=B,=D]2 | z2 =B,2 | [=D=E]2 z2 | =A,2 [C=E]2 | z2 (G,2 | [CE]2) z2 | (G,2 [C=E]2) | %236
 !tenuto!F,2 !tenuto!=E,2 | !tenuto!E,2 !tenuto!=D,2 | =D,2 D,2 |!f! ^C,"^sempre" =E,2 G, | %240
 B,2 (^C^B, | ^C^B, C2) | (!^!=E^CB,G, | =E,2) !^!^C,2 | ^C,2 C,2 | =D, F,2 A, | =B,2 (=D^C | %247
 =D^C D2) | (!^!F=D=B,A, | F,2) !^!=D,2 | A,,2 A,,2 | (F,,=E,,F,,E,, |F,,=E,,) (=D,,^C,, | %253
^C,,C,,=D,,=E,, | F,,) z !^!A, z | !^!=B, z[K:treble] !^!A z | A z !^!G z | %257
[K:bass] (G,,^F,,G,,F,, |G,,^F,,) (=E,,^D,, |=E,,^D,,E,,^F,,) | G,, z !^!B, z | %261
 !^!^C z[K:treble] !^!B z | !^!B z !^!=A z |[K:bass] [=A,,,=A,,]4- | [A,,,A,,]2 [=A,,,=A,,]2- | %265
 [A,,,A,,]4 | [=A,,,=A,,]4- | [A,,,A,,]2 [G,,,G,,]2- | [G,,,G,,]4 |[K:treble] (^c4 | c2) c2 | c4 | %272
 =B4 | =B2 c2 | c4 |[K:bass] (F,,=E,,F,,E,, |F,,=E,,) (=D,,^C,, |=D,,^C,,D,,=E,, | F,,) z !^!A, z | %279
 !^!=B, z[K:treble] !^!A z | !^!A z G z |[K:bass] (G,,^F,,G,,F,, |G,,^F,,) (=E,,^D,, | %283
=E,,^D,,E,,^F,, | G,,) z !^!B, z | !^!^C z[K:treble] !^!B z | !^!G z !^!^F z | %287
[K:bass]{/C=D} (C3 =B, | =A,2){/^D,} (=E,2- | E,^F, G,2) | C,4 | =B,,2{/B,,} (C,2- | C,2 =B,,2) | %293
{/C=D} (C3 =B, | =A,2){/=E,} (^F,2- | F,^F, G,2) | C,4 | =B,,2 ((([B,,^F,=A,]2- | [B,,F,A,]4 | %299
 ((([=E,G,=B,]4-))) | [E,G,B,]2 [=A,C]2-))) | [A,C]4 | ((([=E,G,=B,]4- | [E,G,B,]2 (([=A,C]2-))) | %304
 [A,C]4 | (([G,=B,]4-)) | [G,B,]2 [=A,=B,]2-)) | [A,B,]4 | ((([=E,G,=B,]4 | [C,^F,]2))) [=B,,F,]2 | %310
{/^A,} !>!=B,2 !>!!fermata!=B,,2 | ((([=E,G,=B,]4- | [E,G,B,]2 (([=A,C]2-))) | [A,C]4 | %314
 [=E,G,=B,]4-)) | [E,G,B,]2 (([=A,C]2- | [A,C]2 ^D,2 |"^cresc." [G,=B,]4-)) | [G,=B,]2 [=A,B,]2- | %319
 [A,B,]4 | [=E,G,=B,]2- [E,G,B,][C,C] |[=A,,=A,][^F,,^F,] [E,,E,]2 |"^sempre" E,=D,D,D, | %323
 ^C, =E,2 G, | B,2 (^C^B, |^C^B, C2) | (=E^CB,G, | =E,2) !^!^C,2 | ^C,2 C,2 | =D, F,2 A, | %330
 =B,2 (=D^C | =D^C D2) | (!^!F=D=B,A, | F,2) !^!=D,2 | =D,2 D,2 | z2 (=A,2 | [C=D]2) z2 | %337
 (G,2 [=B,=D]2) | z2 (=B,2 | [=D=E]2) z2 | =A,2 [C=E]2 | z2 G,2 | [CE]2 z2 | G,2 [=B,=D]2 | %344
 !tenuto!F,2 !tenuto!=E,2 | !tenuto!E,2 !tenuto!=D,2 | =D,2 D,2 |!f! ^C, =E,2 G, | B,2 (^C^B, | %349
^C^B, C2) | (!^!=E^CB,G, | =E,2) !^!^C,2 | ^C,2 C,2 | =D, F,2 A, | =B,2 (=D^C |=D^C D2) | %356
 (F=D=B,A, | F,2) !^!=D,2 | A,,2 A,,2 | (F,,=E,,F,,E,, |F,,.=E,,) (=D,,^C,, | =D,,^C,,D,,=E,,) | %362
 F,, z !^!A, z | !^!=B, z[K:treble] A z | !^!A z !^!G z |[K:bass] (G,,^F,,G,,F,, | %366
G,,^F,,) (=E,,^D,, | =E,,^D,,E,,^F,,) |] G,, z !^!B, z | !^!^C z[K:treble] !^!B z | %370
 !^!B z !^!=A z |[K:bass] [=A,,,=A,,]4- | [A,,,A,,]2 [=A,,,=A,,]2- | [A,,,A,,]4 | [=A,,,=A,,]4- | %375
 [A,,,A,,]2 [G,,,G,,]2- | [G,,,G,,]4 |[K:treble] ^c4 | c2 c2 | c4 | =B4 | =B2 _c2 | _c4 | %383
[K:bass] (F,,=E,,F,,E,, |F,,=E,,) (=D,,^C,, |=D,,^C,,D,,=E,, | F,,) z !^!A, z | %387
 !^!=B, z[K:treble] A z | A z G z |[K:bass] (G,,^F,,G,,F,, |G,,^F,,) (=E,,^D,, |=E,,^D,,E,,^F,, | %392
 G,,) z !^!B, z | !^!^C z[K:treble] !^!B z | !^!G z !^!^F z | (=A3 c | ^d2) =dd |^cc =c2 | %398
[K:bass] (=A,3 C | ^D2) =DD |^CC =C2 |"^R.H.""^L.H." (C3 =A, | ^F,2) =F,F, |=E,.E, E,2 | %404
!<(! ^D,2 z2!<)! | z2 [=B,,^F,=A,]2- | [B,,F,A,]4 | ((([=E,G,=B,]4- | [E,G,B,]2 (([=A,C]2-))) | %409
 [A,C]4 | ((([=E,G,=B,]4-)) | [E,G,B,]2 (([=A,C]2-))) | [A,C]4 |"^cresc." (([G,=B,]4-)) | %414
 [G,B,]2 (([=A,=B,]2-)) | [A,B,]4 | (([=E,G,=B,]4)) | [C,^F,]2)) [=B,,F,]2 | %418
{/^A,} !>!=B,2 !>!!fermata!=B,,2 |!mp! (([=E,G,=B,]4- | [E,G,B,]2 (([=A,C]2-)) | [A,C]4 | %422
 [=E,G,=B,]4-)) | [E,G,B,]2 (([=A,C]2- | [A,C]4 |"^cresc." (([G,=B,]4-)) | [G,B,]2 [=A,=B,]2-)) | %427
 [A,B,]4 |"^sempre" [=E,G,=B,]2 z2 | z2 z2 | z4 | z4 | z2 z2 | z4 | [B,,B,]2 [B,,B,]2- | %435
 [B,,B,]2 [=E,B,]2 | z2 z2 | z4 | z2 z2 | z4 | [=B,,=B,]2 [B,,B,]2- | %441
 [B,,B,]2 [=B,,=B,][=E,,=E,]- | [E,,E,][^F,,^F,][G,,G,][=B,,=B,] | [=A,,=A,]3 [=B,,=B,] | %444
 [C,C]2 [=B,,=B,]2 | z2 z2 | [=B,,=B,]2 z2 | z2 [=E,,=E,]2 |[K:treble]{/F} G2 =B2 | [=EG=B]2 z2 | %450
 z2[K:bass] !fermata![=E,,=E,]2- | [E,,E,]4 | z4 | C>=A, =D,C,/D,/ | =E, F,2 G, | %455
 =E,=D,/E,/ F,/=A,_A,/ | G,2 !>![G,,G,] z | (G,>^F, CG,) | A,3 A, | (G,>^F, CG,) | [C,A,]3 [C,G,] | %461
 [=B,,=B,][^G,=D=E] [=E,,=E,][=D,,=D,] | [C,,C,][=A,C=E] [=A,,A,][=G,,=G,] | %463
 [^F,,^F,][F,C=D] [=D,,=D,][F,CD] | [G,,G,][G,=B,=D] =B,,[G,B,D] | (G,>^F, CG,) | A,3 A, | %467
 (G,>^F, CG,) | A,3 A, | G,B, [=A,,=A,][G,,G,] | [^F,,^F,][F,C=D] [=D,D][C,C] | %471
 [=B,,=B,][G,B,=F] [G,,G,][G,B,F] | [C,C]G, C,[G,=B,] | [C,C]G, !tenuto!C,2 | %474
 [F,,F,][=A,CF] [F,,F,][^D,,^D,] | =E,[G,C=E] _E,[C_E^F] | =D,[C=D=F] G,,[=B,DF] | %477
 C,[G,C=E] [=E,,=E,][C,,C,] | [F,,F,][=A,CF] [F,,F,][^D,,^D,] | =E,[G,C=E] _E,[C_E^F] | %480
 [=D,,=D,][=E,,=E,] E,[^G,=D=E] | [=A,,=A,]/=E,/C,/A,,/ [C,,C,]2 | %482
 [F,,F,][=A,CF] [F,,F,][^D,,^D,] | =E,[G,C=E] _E,[C_E^F] | =D,[C=D=F] G,,[=B,DF] | %485
 C,[G,C=E] =E,[E,G,] | (^F,,/=A,,/^F,) (^D,/F,/^D) | (^F/^D/C/=A,/ D/C/A,/^F,/) | G,[C=E] G,,G, | %489
 [C,G,] z z [C,,C,] | G,2- G, z | [C,=A,][C,F,A,] C,,[C,F,] | F,,[=C,F,] C,,[C,F,] | %493
 (B,,,B,,) (B,,,B,,) | F,,[C,F,=A,] C,,[C,=E,B,] | [C,=A,][C,F,A,] C,,[C,F,] | F,,F, (^F,,^F,) | %497
 (G,,G,) (G,,G,) | (C,2 [C,,C,]2) | [C,=A,][C,F,A,] C,,[C,F,] | F,,[=C,F,] C,[F,=A,] | %501
 B,,=D, [B,,B,][B,,B,] | =A,[=E,A,] G,[E,A,] | [^F,,^F,][=D,F,C] [=D,,D,][F,C=D] | %504
 [G,,G,][G,=B,=D] [=D,,=D,][^D,,^D,] | [=E,,=E,][_B,C=E] [C,,C,][B,CE] | %506
 [F,,F,][=E,,=E,]/[=D,,=D,]/ [C,,C,]2 | [F,,F,]=A,,/C,/ [F,,F,]!^![^F,,^F,] | %508
 [G,,G,][B,C=E] [C,,C,][B,CE] | [G,,G,][B,C=E] [C,C][B,,B,] | [=A,,=A,][A,CF] [C,,C,][A,CF] | %511
 [F,,F,][=A,CF] [C,C][A,CF] | [=A,,=A,][^F,C=D] [=D,D][C,C] | [B,,B,][G,B,=D] [G,,G,][G,B,D] | %514
 [^G,,^G,][=B,=D=E] [=E,,=E,][G,DE] | [=A,,=A,][A,C=E] [A,,A,][^F,,^F,] | %516
 [G,,G,][B,C=E] [C,,C,][B,CE] | [G,,G,][B,C=E] [C,C][B,,B,] | [=A,,=A,][A,CF] [C,,C,][A,CF] | %519
 [F,,F,][=A,CF] [C,C][A,CF] | [=A,,=A,][^F,C=D] [=D,D][C,C] | [B,,B,][G,B,=D] [=D,D]!^![_D,_D] | %522
 !^![C,C][=A,CF] [C,,C,][B,C=E] | [F,,F,]=A,,/C,/ !^![F,,F,][^F,,^F,] | [F,,F,]C, !^!F,, z | z4 | %526
 B,/=A,/G,/B,/- B,/A,/G, | F,/G,/=A,/F,/- F,2 | C,F,/G,/ F,/E,C,/ | B,,[F,B,=D] F,,[F,B,D] | %530
 [C,C][F,=A,E] F,,[F,A,E] | [C,C][F,=A,E] F,,[F,A,E] | B,,[F,B,=D] F,,[F,B,D] | %533
 B,,[F,B,=D] [=D,D][=B,,=B,] | [C,C][F,=A,E] [F,,F,][^F,,^F,] | [G,,G,][G,B,=D] G,,[B,D] | %536
 =A,,[=A,=DF] A,,[A,^CG] | [=DF]{/^G,,}!^!=A,, !^!=D,, z | C,[F,=A,E] F,,[F,A,E] | %539
 C,[F,=A,E] F,,[F,A,E] | B,,[F,B,=D] G,,[G,=B,D] | C,[G,CE] [E,,E,][G,CE] | %542
 [E,,E,][G,CE] [G,,G,][E,,E,] | [=D,,=D,][F,B,=D] [=E,,=E,][G,B,^C] | %544
 [F,,F,][F,B,=D] [G,,G,][F,,F,] | [B,,B,] z z [=B,,=B,] | [B,,B,] (F=DB,) | %547
!f! E,[G,B,E] B,,[G,B,E] | (G,/^F,/G,/=A,/ B,/)G,/E, | B,,[F,B,=D] F,,[F,B,D] | %550
 (=D,/^C,/D,/E,/ F,/)D,/F, | =C,[F,=A,E] F,,[F,A,E] | =A,,[F,CE] F,,[F,=A,E] | %553
 B,,[F,B,=D] F,,[F,B,D] | B,,[F,B,=D] [=D,D][B,,B,] | E,[G,B,E] B,,[G,B,E] | %556
 (G,/^F,/G,/=A,/ B,/)G,/E, | B,,[F,B,=D] F,,[F,B,D] | (=D,/^C,/D,/E,/ F,/)D,/B,, | %559
 [E,,E,][G,B,E] [G,,G,][_G,,_G,] | [F,,F,][B,=D] (^C/B,/G,/=E,/) | F,[B,=D] F,[=A,E] | %562
 [B,=D] (FDB,) | =D2- D z | [E,,E,][B,EG] [G,,G,][_G,,_G,] | [F,,F,][B,=DA] B,,[B,DA] | %566
 [E,,E,][B,EG] [G,,G,][_G,,_G,] | [F,,F,][B,=DA] B,,[B,DA] | [=D,,=D,][B,=DA] B,,[B,DA] | %569
 [E,,E,][B,EG] C,[CE] | F,[B,=D] C,F, | z2 [B,=DA]2 | [E,,E,][B,EG] [G,,G,][_G,,_G,] | %573
 [F,,F,][B,=DA] B,,[B,DA] | [E,,E,][B,EG] [G,,G,][_G,,_G,] | [F,,F,][B,=DA] B,,[B,DA] | %576
 [E,,E,][B,EG] G,,[B,DE] | A,,[A,CE] =A,,[^F,CE] | B,,[G,B,E] B,,[A,B,=D] | [E,G,B,] z z2 | %580
 [E,G,B,][B,,B,] [E,,E,] z | (E,=E, (F,)B,,) | (E,=E,) F,2 | C,[F,=A,E] F,,[F,A,E] | %584
 B,,[F,B,=D] F,,[F,B,D] | [C,C][F,=A,E] F,,[F,A,E] | C,[F,=A,E] F,,[F,A,E] | %587
 B,,[F,B,=D] F,,[F,B,D] | B,,[F,B,=D] [=D,D][=B,,=B,] | [C,C][F,=A,E] [F,,F,][^F,,^F,] | %590
 [G,,G,][G,B,=D] G,,[B,D] | =A,,[=A,=DF] A,,[A,^CG] | [=DF]{/^G,,}!^!=A,, !^!=D,, z | %593
 C,[F,=A,E] F,,[F,A,E] | C,[F,=A,E] F,,[F,A,E] | B,,[F,B,=D] G,,[G,=B,D] | C,[G,CE] [E,,E,][G,CE] | %597
 [E,,E,][G,CE] [G,,G,][E,,E,] | [=D,,=D,][F,B,=D] [=E,,=E,][G,B,^C] | %599
 [F,,F,][F,B,=D] [G,,G,][F,,F,] | [B,,B,] z z [=B,,=B,] | [B,,B,][F,,F,] [B,,,B,,] z |] %602
V:3
 x |: x4 | x4 | x4 | x4 | x4 | x4 | A,,, z A,, z | x4 |[K:treble] x4 | x4 | x4 | x4 |[K:bass] x4 | %14
 x4 | x4 |2 x4 :| x4 |: x4 | x4 | x4 | x4 | x4 | x4 | x4 | x4 | x4 | x4 | x4 | x4 | x4 | x4 | x4 |1 %33
 x4 :|2 x4 || x4 | x4 | x4 | x4 | x4 | x4 | A,,, z A,, z | x4 | x4 | x4 | x4 | x4 | x4 | x4 | x4 | %50
 x4 |:[K:Db] x4 | x4 | x4 | x4 | x4 | x4 | x4 | x4 | x4 | x4 | x4 | x4 | x4 | x4 | x4 |1 x4 :|2 %67
 x4 |:[K:Ab] x4 | x4 | x4 | x4 | x4 | x4 | x4 | x4 | x4 | x4 | x4 | x4 | x4 | x4 | x4 |1 x4 :|2 %84
 x4 || x4 |[K:treble-8] x4 |[K:bass] x4 | x4 | x4 |: x4 | x4 | x4 | x4 | x4 | x4 | x4 | x4 | x4 | %99
 x4 | x4 | x4 | x4 | x4 | x4 |1 x4 :|2 x4 |: x4 | x4 | x4 | x4 | x4 | x4 | x4 | x4 :: x4 | x4 | %117
 x4 | x4 | x4 | x4 | x4 |1 x4 :|2 x4 || x4 | x4 | x4 | x4 | x4 | x4 | x4 | x4 | x4 | x4 | x4 | x4 | %136
 x4 | x4 | x4 | x4 | x4 | x4 | x4 | x4 | x4 | x4 | x4 | z2 G,C, | x4 | x4 | x4 | x4 | x4 | x4 | %154
 x4 | x4 | x4 | x4 | x4 | x4 | x4 | x4 | x4 | x4 | x4 | x4 | x4 | x4 | x4 | x4 | x4 | x4 | x4 | %173
 x4 | x4 | x4 | x4 | x4 | x4 | x4 | x4 | x4 | x4 | x4 | x4 | x4 | x4 | x4 | x4 | x4 | x4 | x4 | %192
 x2 =E,2- | E,2 ^D,2 | x4 | x2 (=E,2- | E,2 ^D,2 | =E,2) =B,,2- | B,,=B,, ^D,2 | =B,,2- B,,B,, | %200
 x4 | x4 | x4 | x4 | x2 =E,2- | E,2 ^D,2 | x4 | x2 =E,2- | E,2 ^D,2 | =E,2 =B,,2- | B,,=B,, ^D,2 | %211
 =B,,2- B,,B,, | x4 | x4 | x4 | x4 | x4 | x4 | x4 | x4 | x4 | x4 | x4 | x4 | x4 | x4 | x4 | =D,4- | %228
 D,2 (=D,2- | D,2 F,2) | =E,4- | E,2 =E,2- | E,4 | (C,4- | C,2 =D,2-) | D,4 | x4 | x4 | x4 | x4 | %240
 x4 | x4 | x4 | x4 | x4 | x4 | x4 | x4 | x4 | x4 | x4 | x4 | x4 | x4 | x4 | x2[K:treble] x2 | x4 | %257
[K:bass] x4 | x4 | x4 | x4 | x2[K:treble] x2 | x4 |[K:bass] x4 | x4 | x4 | x4 | x4 | x4 | %269
[K:treble] x4 | x4 | x4 | x4 | x4 | x4 |[K:bass] x4 | x4 | x4 | x4 | x2[K:treble] x2 | x4 | %281
[K:bass] x4 | x4 | x4 | x4 | x2[K:treble] x2 | x4 |[K:bass] x4 | x4 | x4 | x4 | x4 | x4 | x4 | x4 | %295
 x4 | x4 | x4 | x4 | x4 | x2 =E,2- | E,2 ^D,2 | x4 | x2 (=E,2- | E,2 ^D,2 | =E,2) =B,,2- | %306
 B,,=B,, ^D,2 | =B,,2- B,,B,, | x4 | x4 | x4 | x4 | x2 =E,2- | E,2 .^D,2 | x4 | x2 (.=E,2- | %316
 E,2 x2 | =E,2) =B,,2- | B,,.=B,, ^D,2 | =B,,2 B,,B,, | x4 | x4 | x4 | x4 | x4 | x4 | x4 | x4 | %328
 x4 | x4 | x4 | x4 | x4 | x4 | x4 | =D,4- | D,2 (=D,2- | D,2 F,2) | =E,4- | E,2 =E,2- | E,4 | %341
 C,4- | C,2 =D,2- | D,4 | x4 | x4 | x4 | x4 | x4 | x4 | x4 | x4 | x4 | x4 | x4 | x4 | x4 | x4 | %358
 x4 | x4 | x4 | x4 | x4 | x2[K:treble] x2 | x4 |[K:bass] x4 | x4 | x4 |] x4 | x2[K:treble] x2 | %370
 x4 |[K:bass] x4 | x4 | x4 | x4 | x4 | x4 |[K:treble] x4 | x4 | x4 | x4 | x4 | x4 |[K:bass] x4 | %384
 x4 | x4 | x4 | x2[K:treble] x2 | x4 |[K:bass] x4 | x4 | x4 | x4 | x2[K:treble] x2 | x4 | x4 | x4 | %397
 x4 |[K:bass] x4 | x4 | x4 | (=A,,3 C, | ^D,2) =D,D, |^C,C, =C,2 | =B,,4- | B,,2 x2 | x4 | x4 | %408
 x2 =E,2- | E,2 ^D,2 | x4 | x2 (=E,2- | E,2 ^D,2 | =E,2) =B,,2- | B,,=B,, ^D,2 | =B,,2- B,,B,, | %416
 x4 | x4 | x4 | x4 | x2 =E,2- | E,2 ^D,2 | x4 | x2 (=E,2- | E,2 ^D,2 | (=E,2) =B,,2- | %426
 B,,=B,, ^D,2) | =B,,2- B,,B,, | x4 | x4 | x4 | x4 | x4 | x4 | x4 | x4 | x4 | x4 | x4 | x4 | x4 | %441
 x4 | x4 | x4 | x4 | x4 | x4 | x4 |[K:treble] x4 | x4 | x2[K:bass] x2 | x4 | x4 | x4 | x4 | x4 | %456
 x4 | C,4 | C,4 | C,4 | x4 | x4 | x4 | x4 | x4 | C,4 | C,4 | C,4 | C,4 | C,2 x2 | x4 | x4 | x4 | %473
 x4 | x4 | [=E,,=E,]2 [_E,,_E,]2 | [=D,,=D,]2 [G,,,G,,]2 | [C,,C,]2 x2 | x4 | %479
 [=E,,=E,]2 [_E,,_E,]2 | x2 [=E,,=E,]2 | x4 | x4 | [=E,,=E,]2 [_E,,_E,]2 | [=D,,=D,]2 [G,,,G,,]2 | %485
 [C,,C,]2 [=E,,=E,]2 | x4 | x4 | G,2 G,,2 | x4 | C,G,, C,,2 | F,,2 C,,2 | F,,2 C,,2 | x4 | %494
 F,,2 C,,2 | F,,2 C,,2 | F,,2 ^F,,2 | G,,2 G,,2 | x4 | F,,2 C,,2 | F,,2 C,2 | x4 | %502
 [=A,,=A,]2 [G,,G,]2 | x4 | x4 | x4 | x4 | x4 | x4 | x4 | x4 | x4 | x4 | x4 | x4 | x4 | x4 | x4 | %518
 x4 | x4 | x4 | x4 | x4 | x4 | x4 | x4 | x4 | x4 | x4 | x4 | x4 | x4 | x4 | x4 | x4 | x4 | x4 | %537
 x4 | x4 | x4 | x4 | x4 | x4 | x4 | x4 | x4 | x4 | x4 | x4 | x4 | x4 | x4 | x4 | x4 | x4 | x4 | %556
 x4 | x4 | x4 | x4 | x4 | x4 | x4 | B,F,B,, x | x4 | x4 | x4 | x4 | x4 | x4 | x4 | B,,4 | x4 | x4 | %574
 x4 | x4 | x4 | x4 | x4 | x4 | x4 | x2 F,2 | x4 | x4 | x4 | x4 | x4 | x4 | x4 | x4 | x4 | x4 | x4 | %593
 x4 | x4 | x4 | x4 | x4 | x4 | x4 | x4 | x4 |] %602
V:4
 x |: x4 | x4 | x4 | x4 | x4 | x4 | x4 | x4 | x4 | x4 | x4 | x4 | x4 | x4 | x4 |2 x4 :| x4 |: x4 | %19
 x4 | x4 | x4 | x4 | x4 | x4 | x4 | x4 | x4 | x4 | x4 | x4 | x4 | x4 |1 x4 :|2 x4 || x4 | x4 | x4 | %38
 x4 | x4 | x4 | x4 | x4 | x4 | x4 | x4 | x4 | x4 | x4 | x4 | x4 |:[K:Db] x4 | x4 | x4 | x4 | x4 | %56
 x4 | x4 | x4 | x4 | x4 | x4 | x4 | x4 | x4 | x4 |1 x4 :|2 x4 |:[K:Ab] x4 | x4 | x4 | x4 | x4 | %73
 x4 | x4 | x4 | x4 | x4 | x4 | x4 | x4 | x4 | x4 |1 x4 :|2 x4 || x4 | x4 | x4 | x4 | x4 |: x4 | %91
 x4 | x4 | x4 | x4 | x4 | x4 | x4 | x4 | x4 | x4 | x4 | x4 | x4 | x4 |1 x4 :|2 x4 |: x4 | x4 | x4 | %110
 x4 | x4 | x4 | x4 | x5/2!8va(! x3/2!8va)! :: x4 | x4 | x4 | x4 | x4 | x4 | x4 |1 %122
 x5/2!8va(! x3/2!8va)! :|2 x4 || x4 | x4 | x4 | x4 | x4 | x4 | x4 | x4 | x4 | x4 | x4 | x4 | x4 | %137
 x4 | x4 | x4 | x4 | z B/=A/ B/c/=d | x4 | z G/^F/ G/=A/B | x4 | x4 | x4 | x4 | x4 | %149
 z B/=A/ B/c/=d | x4 | z G/^F/ G/=A/B | x4 | x4 | x4 | x4 | x4 | x4 | x4 | x4 | x4 | x4 | x4 | x4 | %164
 x4 | x4 | x4 | x4 | x4 | x4 | x4 | x4 | x4 | x4 | x4 | x4 | x4 | x4 | x4 | x4 | x4 | x4 | x4 | %183
 x4 | x4 | x4 | x4 | x4 | x4 | x2 [=B,^D]2- | [B,D]4 | G=E- E2- | E2 (=E^F | (=E2) ^F2) | %194
 G=E- E2- | E2 (=E^F | (=E2) ^F2) | x4 | x4 | x4 | z4 | ^A2 x2 | x4 | G=E- E2- | E2 (=E^F | %205
 (=E2) ^F2) | G=E- E2- | E2 (=E^F | (=E2) ^F2) | x4 | x4 | x4 | x4 | x4 | x4 | x4 | x4 | x4 | x4 | %219
 x4 | x4 | x4 | x4 | x4 | x4 | x4 | x4 | (([^Fc]4- | [^Fc]2 [G=B]2-)) | [GB]4 | (([^F=d]4- | %231
 [^Fd]2 [=Ac]2-)) | [Ac]4 | ([ce]4 | G2) ([=B=d]2- | [Bd]2 G2) | x4 | x4 | x4 | x4 | x4 | x4 | x4 | %243
 x4 | x4 | x4 | x4 | x4 | x4 | x4 | x4 |[K:bass] x4 | x4 | x4 | x2[K:treble] x2 | x4 | x4 | %257
[K:bass] x4 | x4 | x4 | x2[K:treble] x2 | x4 | x4 |[K:bass] x4 | x4 | x4 | x4 | x4 | x4 | %269
[K:treble] [g^a]4 | [g=a]2 x2 | x4 | g4 | [f^g]2 [f=a]2 | (([f=a]2 [=eb])) z |[K:bass] x4 | x4 | %277
 x4 | x[K:treble] x3 | x4 | x4 |[K:bass] x4 | x4 | x4 | x2[K:treble] x2 | x4 | x4 | x4 | x4 | x4 | %290
 x4 | x4 | x4 | x4 | x4 | x4 | x4 | x2 [=B,^D]2- | [B,D]4 | (G=E-) E2- | E2 (=E^F | =E2 ^F2) | %302
 (G=E-) E2- | E2 (=E^F | =E2 ^F2) | x4 | x4 | x4 |{/c} =B([B-g=b-] [Bgb])[G=eg] |[=E=e] [^F^f] x2 | %310
 x4 | G=E- E2- | E2 =E^F | =E2 ^F2 | G=E- E2- | E2 =E^F | =E2 ^F2 | x4 | x4 | x4 | x4 | x4 | x4 | %323
 x4 | x4 | x4 | x4 | x4 | x4 | x4 | x4 | x4 | x4 | x4 | x4 | (([^Fc]4- | [^Fc]2 [G=B]2-)) | [GB]4 | %338
 (([^G=d]4- | [Gd]2 (([=Ac]2-)) | [Ac]4 | ([ce]4)) | G2) ([=B=d]2- | [Bd]2 G2) | x4 | x4 | x4 | %347
 x4 | x4 | x4 | x4 | x4 | x4 | x4 | x4 | x4 | x4 | x4 | x4 |[K:bass] x4 | x4 | x4 | %362
 x2[K:treble] x2 | x4 | x4 |[K:bass] x4 | x4 | x4 |] x2[K:treble] x2 | x4 | x4 |[K:bass] x4 | x4 | %373
 x4 | x4 | x4 | x4 |[K:treble] [g^a]4 | !tenuto![g=a]2 x2 | x4 | g4 | [f^g]2 [f=a=d']2 | %382
 (([f=a]2 [=e=b])) z |[K:bass] x4 | x4 | x4 | x2[K:treble] x2 | x4 | x4 |[K:bass] x4 | x4 | x4 | %392
 x2[K:treble] x2 | x4 | x4 | x4 | x4 | x4 | x4 | x4 | x4 | x4 | x4 | x4 | x4 | x2 [=B,^D]2- | %406
 [B,D]4 | G=E- E2- | E2 =E^F | =E2 ^F2 | G=E- E2- | E2 =E^F | =E2 ^F2 | x4 | x4 | x4 | %416
{/c} =B[Bg=b]- [Bgb]([G=eg] | [=E=e][^F^f]) x2 | x4 | G=E- E2- | E2 (=E^F | =E2 ^F2) | G=E- E2- | %423
 E2 =E^F | =E2 ^F2 | x4 | x4 | x4 | x4 | x4 | x4 | x4 | x4 | x4 | z2 [A=d]2- | [Ad]2 x2 | x4 | x4 | %438
 x4 | x4 | x2 [=A^d]2- | [Ad]2 x2 | x4 | x4 | x4 | x4 | x4 | x4 | x4 | x4 | x4 | x4 | x4 | x4 | %454
 x4 | x4 | x4 | x4 | =F2- FC | x4 | =F2- F=E | =E>^G- GG | =E>[=Ac]- [Ac][Ac] | c>[=d^f]- x2 | x4 | %465
 x4 | =F2- FC | x4 | =F2- FF | =E>^C- x2 | x4 | x4 | x4 | x2 x =e | x4 | x2 [c^f]2 | %476
 [c=f]2 [=Bf]2 | [c=e]2 [ce]e | x4 | x2 [c^f]2 | x2 [=d=e]2 | x2 [c=e]e | x4 | x2 [c^f]2 | %484
 [c=f]2 [=Bf]2 | [c=e]2 [ce] z | x4 | x4 | [c=e]2 [G=B]<[FB] | x4 | x3 [B,=E] | x4 | x4 | %493
 D>_D- x2 | z/ [f=a]/[=ea]/[=da]/- [da]/ z/ z | x4 | x4 | [CE]2 x2 | [=E_B]2 [B,E]2 | x4 | x4 | %501
 D>_D- x2 | [^C=E=A]2- [CEA]/[CE]/[CA] | x4 | =B>B- BB | [c=e]>[ce]- [ce]_B | x2 [Ac]/=A,/[B,=E] | %507
 x4 | x4 | x4 | x4 | x4 | x4 | x4 | x4 | x4 | x4 | x4 | x4 | x4 | x4 | x4 | =a2 [c=e]<[_Be] | x4 | %524
 x4 | x4 | x4 | x4 | x4 | x4 | x4 | x4 | x4 | x4 | =A>A- AA | x4 | x4 | x4 | x4 | x4 | x2 =B>=c- | %541
 x4 | x4 | x4 | x4 | x4 | x4 | x4 | x4 | x4 | x4 | x4 | x4 | x4 | x4 | x4 | x4 | x4 | x4 | x4 | %560
 x4 | x4 | x4 | x4 | x4 | x4 | x4 | x4 | x4 | x4 | x4 | =d2 z2 | x4 | x4 | x4 | x4 | x4 | x4 | x4 | %579
 x4 | x4 | x2 F2 | x4 | x4 | x4 | x4 | x4 | x4 | x4 | =A>A- AA | x4 | x4 | x4 | x4 | x4 | %595
 x2 =B>c- | x4 | x4 | x4 | x4 | x4 | x4 |] %602

